src/assets/images/logos/logo-white.svg

<svg width="338" height="109" viewBox="0 0 338 109" fill="none" xmlns="http://www.w3.org/2000/svg">
<path d="M52.3023 40.6743C52.3023 46.9182 47.2149 51.9133 41.0565 51.9133H15.7087C9.46104 51.9133 4.46289 46.829 4.46289 40.6743V15.3421C4.46289 9.09824 9.55029 4.10315 15.7087 4.10315H41.0565C47.3042 4.10315 52.3023 9.09824 52.3023 15.3421V40.6743Z" fill="white"/>
<path d="M104.961 40.6743C104.961 46.9182 99.8741 51.9133 93.7156 51.9133H68.3679C62.1202 51.9133 57.1221 46.829 57.1221 40.6743V15.3421C57.1221 9.09824 62.2095 4.10315 68.3679 4.10315H93.7156C99.9633 4.10315 104.961 9.09824 104.961 15.3421V40.6743Z" fill="white"/>
<path d="M52.3023 93.3012C52.3023 99.545 47.2149 104.54 41.0565 104.54H15.7087C9.46104 104.54 4.46289 99.4558 4.46289 93.3012V67.9689C4.46289 61.7251 9.55029 56.73 15.7087 56.73H41.0565C47.3042 56.73 52.3023 61.8143 52.3023 67.9689V93.3012Z" fill="white"/>
<path d="M104.961 93.3012C104.961 99.545 99.8741 104.54 93.7156 104.54H68.3679C62.1202 104.54 57.1221 99.4558 57.1221 93.3012V67.9689C57.1221 61.7251 62.2095 56.73 68.3679 56.73H93.7156C99.9633 56.73 104.961 61.8143 104.961 67.9689V93.3012Z" fill="white"/>
<path d="M130.755 46.2938C124.686 46.2938 120.848 44.5991 117.1 40.9419L119.242 38.8012C122.901 42.4583 125.936 43.6179 130.844 43.6179C137.271 43.6179 141.376 40.4959 141.376 35.1441C141.376 32.7357 140.662 30.6842 139.145 29.4354C137.628 28.1866 136.557 27.7406 133.254 27.2946L128.524 26.581C125.4 26.1351 122.99 25.0647 121.205 23.6375C119.063 21.7643 117.992 19.2668 117.992 16.1449C117.992 9.27662 122.901 4.99512 130.666 4.99512C135.753 4.99512 138.966 6.33309 142.447 9.45502L140.395 11.5066C137.895 9.27662 135.307 7.76026 130.487 7.76026C124.597 7.76026 121.027 11.0606 121.027 16.2341C121.027 18.5532 121.741 20.3372 123.169 21.586C124.597 22.8347 126.917 23.7267 129.238 24.0835L133.701 24.7971C137.538 25.3323 139.234 26.0459 141.019 27.473C143.251 29.3462 144.589 32.1113 144.589 35.4117C144.5 41.9231 139.234 46.2938 130.755 46.2938Z" fill="white"/>
<path d="M156.549 45.937H153.693L143.607 18.2856H146.821L155.121 42.5474L163.422 18.2856H166.635L156.549 45.937Z" fill="white"/>
<path d="M184.843 25.1539C183.593 22.2995 180.826 20.5156 177.703 20.5156C174.579 20.5156 171.723 22.2995 170.562 25.1539C169.848 26.8486 169.67 27.7406 169.58 30.4166H185.914C185.735 27.7406 185.557 26.9378 184.843 25.1539ZM169.491 32.7357C169.491 39.7823 172.615 43.6179 178.506 43.6179C181.808 43.6179 183.772 42.6367 186.182 40.3175L188.324 42.0123C185.467 44.8666 182.968 46.2938 178.327 46.2938C170.652 46.2938 166.546 41.3879 166.546 32.1113C166.546 23.1915 170.652 17.9288 177.613 17.9288C184.486 17.9288 188.681 23.0131 188.681 31.3977V32.7357H169.491Z" fill="white"/>
<path d="M208.494 22.7455C206.798 21.0507 205.549 20.6047 203.228 20.6047C198.498 20.6047 195.82 24.5295 195.82 28.9894V46.0262H192.875V18.3748H195.82V22.0319C197.427 19.4452 200.64 18.018 203.942 18.018C206.62 18.018 208.673 18.7316 210.636 20.6939L208.494 22.7455Z" fill="white"/>
<path d="M212.779 18.2856H215.724V45.937H212.779V18.2856ZM212.422 5.08429H216.081V8.74141H212.422V5.08429Z" fill="white"/>
<path d="M230.807 20.5155C224.024 20.5155 222.953 26.4026 222.953 32.1113C222.953 37.82 224.024 43.707 230.807 43.707C237.59 43.707 238.661 37.82 238.661 32.1113C238.661 26.4026 237.59 20.5155 230.807 20.5155ZM230.271 59.4951C226.166 59.4951 224.024 58.4247 221.168 55.838L223.131 53.8756C225.273 55.838 226.791 56.9083 230.271 56.9083C236.073 56.9083 238.661 52.8052 238.661 47.3642V42.4583C236.251 45.6694 233.574 46.383 230.45 46.383C227.594 46.383 225.095 45.4018 223.667 43.9746C220.811 41.1203 220.097 36.5712 220.097 32.2005C220.097 27.8298 220.811 23.2807 223.667 20.4264C225.095 18.9992 227.594 18.018 230.45 18.018C233.574 18.018 236.251 18.7316 238.661 21.9427V18.3748H241.607V47.6318C241.517 54.5 237.412 59.4951 230.271 59.4951Z" fill="white"/>
<path d="M264.188 25.1539C262.939 22.2995 260.172 20.5156 257.048 20.5156C253.924 20.5156 251.068 22.2995 249.908 25.1539C249.194 26.8486 249.015 27.7406 248.926 30.4166H265.259C265.081 27.7406 264.902 26.9378 264.188 25.1539ZM248.837 32.7357C248.837 39.7823 251.961 43.6179 257.851 43.6179C261.154 43.6179 263.117 42.6367 265.527 40.3175L267.669 42.0123C264.813 44.8666 262.314 46.2938 257.673 46.2938C249.997 46.2938 245.892 41.3879 245.892 32.1113C245.892 23.1915 249.997 17.9288 256.959 17.9288C263.831 17.9288 268.026 23.0131 268.026 31.3977V32.7357H248.837Z" fill="white"/>
<path d="M281.681 46.2938C276.862 46.2938 273.292 45.045 270.436 42.3691L272.488 40.3175C274.63 42.6367 277.576 43.707 281.592 43.707C287.037 43.707 289.893 41.8339 289.893 38.0876C289.893 35.2332 288.197 33.8061 284.627 33.4493L280.075 33.0925C274.541 32.6465 271.774 30.1489 271.774 25.8674C271.774 21.1399 275.701 18.018 281.681 18.018C285.43 18.018 289 19.0884 291.41 20.9615L289.446 22.9239C287.304 21.4075 284.716 20.6047 281.681 20.6047C277.13 20.6047 274.63 22.5671 274.63 25.9566C274.63 28.811 276.326 30.2381 280.253 30.5949L284.716 31.0409C289.268 31.4869 292.838 32.9141 292.838 38.266C292.749 43.1718 288.465 46.2938 281.681 46.2938Z" fill="white"/>
<path d="M118.349 104.362V63.509H144.41V69.0393H124.507V80.9918H141.554V86.5221H124.507V98.8315H144.41V104.362H118.349Z" fill="white"/>
<path d="M155.568 104.362C150.034 104.362 147.624 100.615 147.624 96.3338V63.509H153.515V95.9771C153.515 98.207 154.318 99.3666 156.639 99.3666H159.227V104.362H155.568Z" fill="white"/>
<path d="M177.97 83.4894C177.077 81.3486 175.025 79.8323 172.258 79.8323C169.491 79.8323 167.349 81.3486 166.456 83.4894C165.921 84.8274 165.742 85.6302 165.742 87.4141H178.862C178.684 85.6302 178.505 84.8274 177.97 83.4894ZM165.653 91.5172C165.653 96.5123 168.331 99.6342 173.061 99.6342C176.363 99.6342 178.059 98.7423 180.112 96.6907L183.861 100.169C180.915 103.113 178.059 104.719 172.972 104.719C165.653 104.719 159.852 100.883 159.852 89.8225C159.852 80.3675 164.76 74.9264 172.168 74.9264C180.023 74.9264 184.485 80.6351 184.485 88.9305V91.5172H165.653Z" fill="white"/>
<path d="M199.301 104.362H194.481L183.86 75.2831H190.019L196.891 95.7095L203.764 75.2831H210.011L199.301 104.362Z" fill="white"/>
<path d="M230.094 104.362L221.972 90.8928L217.598 95.7987V104.362H211.797V63.509H217.598V88.6629L228.933 75.2832H236.074L225.988 86.7005L237.323 104.362H230.094Z" fill="white"/>
<path d="M249.283 60.4763C247.23 60.4763 245.624 62.0818 245.624 64.1334C245.624 66.185 247.319 67.7905 249.283 67.7905C251.336 67.7905 252.942 66.185 252.942 64.1334C252.942 62.0818 251.247 60.4763 249.283 60.4763ZM254.727 91.5172H247.855C244.374 91.5172 242.589 93.0336 242.589 95.7095C242.589 98.3855 244.285 99.8126 247.944 99.8126C250.176 99.8126 251.871 99.6342 253.389 98.1179C254.281 97.2259 254.638 95.8879 254.638 93.8364V91.5172H254.727ZM249.283 71.2692C245.356 71.2692 242.143 68.0581 242.143 64.1334C242.143 60.2087 245.356 56.9976 249.283 56.9976C253.21 56.9976 256.423 60.2087 256.423 64.1334C256.423 68.0581 253.21 71.2692 249.283 71.2692ZM254.817 104.362V101.686C252.675 103.827 250.711 104.629 247.052 104.629C243.392 104.629 240.983 103.737 239.198 101.953C237.68 100.437 236.877 98.2071 236.877 95.7095C236.877 90.8036 240.269 87.3249 246.963 87.3249H254.638V85.2733C254.638 81.6162 252.764 79.8323 248.301 79.8323C245.088 79.8323 243.571 80.5458 241.964 82.6866L238.126 79.0295C240.893 75.8183 243.749 74.8372 248.569 74.8372C256.513 74.8372 260.618 78.2267 260.618 84.8274V104.362H254.817Z" fill="white"/>
<path d="M281.235 82.0622C279.897 80.7243 278.915 80.0999 276.862 80.0999C273.738 80.0999 271.061 82.5974 271.061 86.6113V104.362H265.17V75.2832H270.882V78.4051C272.399 76.3536 275.345 74.9264 278.647 74.9264C281.503 74.9264 283.556 75.64 285.609 77.6915L281.235 82.0622Z" fill="white"/>
<path d="M302.834 83.4894C301.942 81.3486 299.889 79.8323 297.122 79.8323C294.355 79.8323 292.213 81.3486 291.321 83.4894C290.785 84.8274 290.606 85.6302 290.606 87.4141H303.727C303.548 85.6302 303.37 84.8274 302.834 83.4894ZM290.517 91.5172C290.517 96.5123 293.195 99.6342 297.925 99.6342C301.228 99.6342 302.923 98.7423 304.976 96.6907L308.725 100.169C305.779 103.113 302.923 104.719 297.836 104.719C290.517 104.719 284.716 100.883 284.716 89.8225C284.716 80.3675 289.625 74.9264 297.033 74.9264C304.887 74.9264 309.35 80.6351 309.35 88.9305V91.5172H290.517Z" fill="white"/>
<path d="M328.897 82.0622C327.558 80.7243 326.576 80.0999 324.523 80.0999C321.399 80.0999 318.722 82.5974 318.722 86.6113V104.362H312.831V75.2832H318.543V78.4051C320.061 76.3536 323.006 74.9264 326.308 74.9264C329.164 74.9264 331.217 75.64 333.27 77.6915L328.897 82.0622Z" fill="white"/>
</svg>

<svg width="338" height="109" fill="none" xmlns="http://www.w3.org/2000/svg"><path d="M52.302 40.674c0 6.244-5.087 11.24-11.245 11.24H15.709c-6.248 0-11.246-5.085-11.246-11.24V15.342c0-6.244 5.087-11.239 11.246-11.239h25.348a11.196 11.196 0 0 1 11.245 11.24v25.331ZM104.961 40.674c0 6.244-5.087 11.24-11.245 11.24H68.368c-6.248 0-11.246-5.085-11.246-11.24V15.342c0-6.244 5.087-11.239 11.246-11.239h25.348a11.195 11.195 0 0 1 11.245 11.24v25.331ZM52.302 93.301c0 6.244-5.087 11.239-11.245 11.239H15.709c-6.248 0-11.246-5.084-11.246-11.239V67.97c0-6.244 5.087-11.239 11.246-11.239h25.348c6.247 0 11.245 5.084 11.245 11.239V93.3ZM104.961 93.301c0 6.244-5.087 11.239-11.245 11.239H68.368c-6.248 0-11.246-5.084-11.246-11.239V67.97c0-6.244 5.087-11.239 11.246-11.239h25.348c6.247 0 11.245 5.084 11.245 11.239V93.3ZM130.755 46.294c-6.069 0-9.907-1.695-13.655-5.352l2.142-2.14c3.659 3.656 6.694 4.816 11.602 4.816 6.427 0 10.532-3.122 10.532-8.474 0-2.408-.714-4.46-2.231-5.709-1.517-1.248-2.588-1.694-5.891-2.14l-4.73-.714c-3.124-.446-5.534-1.516-7.319-2.944-2.142-1.873-3.213-4.37-3.213-7.492 0-6.868 4.909-11.15 12.674-11.15 5.087 0 8.3 1.338 11.781 4.46l-2.052 2.052c-2.5-2.23-5.088-3.747-9.908-3.747-5.89 0-9.46 3.3-9.46 8.474 0 2.32.714 4.103 2.142 5.352 1.428 1.249 3.748 2.14 6.069 2.498l4.463.713c3.837.535 5.533 1.249 7.318 2.676 2.232 1.873 3.57 4.638 3.57 7.939-.089 6.511-5.355 10.882-13.834 10.882ZM156.549 45.937h-2.856l-10.086-27.651h3.214l8.3 24.261 8.301-24.261h3.213l-10.086 27.651ZM184.843 25.154c-1.25-2.855-4.017-4.638-7.14-4.638-3.124 0-5.98 1.784-7.141 4.638-.714 1.695-.892 2.587-.982 5.263h16.334c-.179-2.676-.357-3.48-1.071-5.263Zm-15.352 7.582c0 7.046 3.124 10.882 9.015 10.882 3.302 0 5.266-.981 7.676-3.3l2.142 1.694c-2.857 2.855-5.356 4.282-9.997 4.282-7.675 0-11.781-4.906-11.781-14.183 0-8.92 4.106-14.182 11.067-14.182 6.873 0 11.068 5.084 11.068 13.469v1.338h-19.19ZM208.494 22.745c-1.696-1.694-2.945-2.14-5.266-2.14-4.73 0-7.408 3.924-7.408 8.384v17.037h-2.945V18.375h2.945v3.657c1.607-2.587 4.82-4.014 8.122-4.014 2.678 0 4.731.714 6.694 2.676l-2.142 2.052ZM212.779 18.286h2.945v27.651h-2.945V18.286Zm-.357-13.202h3.659v3.657h-3.659V5.084ZM230.807 20.515c-6.783 0-7.854 5.888-7.854 11.596 0 5.709 1.071 11.596 7.854 11.596s7.854-5.887 7.854-11.596c0-5.708-1.071-11.595-7.854-11.595Zm-.536 38.98c-4.105 0-6.247-1.07-9.103-3.657l1.963-1.962c2.142 1.962 3.66 3.032 7.14 3.032 5.802 0 8.39-4.103 8.39-9.544v-4.906c-2.41 3.211-5.087 3.925-8.211 3.925-2.856 0-5.355-.981-6.783-2.408-2.856-2.855-3.57-7.404-3.57-11.775 0-4.37.714-8.92 3.57-11.774 1.428-1.427 3.927-2.408 6.783-2.408 3.124 0 5.801.714 8.211 3.925v-3.568h2.946v29.257c-.09 6.868-4.195 11.863-11.336 11.863ZM264.188 25.154c-1.249-2.855-4.016-4.638-7.14-4.638-3.124 0-5.98 1.784-7.14 4.638-.714 1.695-.893 2.587-.982 5.263h16.333c-.178-2.676-.357-3.48-1.071-5.263Zm-15.351 7.582c0 7.046 3.124 10.882 9.014 10.882 3.303 0 5.266-.981 7.676-3.3l2.142 1.694c-2.856 2.855-5.355 4.282-9.996 4.282-7.676 0-11.781-4.906-11.781-14.183 0-8.92 4.105-14.182 11.067-14.182 6.872 0 11.067 5.084 11.067 13.469v1.338h-19.189ZM281.681 46.294c-4.819 0-8.389-1.249-11.245-3.925l2.052-2.051c2.142 2.319 5.088 3.389 9.104 3.389 5.445 0 8.301-1.873 8.301-5.62 0-2.854-1.696-4.28-5.266-4.638l-4.552-.356c-5.534-.447-8.301-2.944-8.301-7.226 0-4.727 3.927-7.849 9.907-7.849 3.749 0 7.319 1.07 9.729 2.944l-1.964 1.962c-2.142-1.517-4.73-2.32-7.765-2.32-4.551 0-7.051 1.963-7.051 5.353 0 2.854 1.696 4.281 5.623 4.638l4.463.446c4.552.446 8.122 1.873 8.122 7.225-.089 4.906-4.373 8.028-11.157 8.028ZM118.349 104.362V63.509h26.061v5.53h-19.903v11.953h17.047v5.53h-17.047v12.31h19.903v5.53h-26.061ZM155.568 104.362c-5.534 0-7.944-3.747-7.944-8.028V63.509h5.891v32.468c0 2.23.803 3.39 3.124 3.39h2.588v4.995h-3.659ZM177.97 83.49c-.893-2.141-2.945-3.658-5.712-3.658s-4.909 1.517-5.802 3.657c-.535 1.338-.714 2.141-.714 3.925h13.12c-.178-1.784-.357-2.587-.892-3.925Zm-12.317 8.027c0 4.995 2.678 8.117 7.408 8.117 3.302 0 4.998-.892 7.051-2.943l3.749 3.478c-2.946 2.944-5.802 4.55-10.889 4.55-7.319 0-13.12-3.836-13.12-14.896 0-9.455 4.908-14.897 12.316-14.897 7.855 0 12.317 5.71 12.317 14.004v2.587h-18.832ZM199.301 104.362h-4.82L183.86 75.283h6.159l6.872 20.427 6.873-20.427h6.247l-10.71 29.079ZM230.094 104.362l-8.122-13.47-4.374 4.907v8.563h-5.801V63.509h5.801v25.154l11.335-13.38h7.141l-10.086 11.418 11.335 17.661h-7.229Z" fill="#fff"/><path d="M249.283 60.476c-2.053 0-3.659 1.606-3.659 3.657 0 2.052 1.695 3.657 3.659 3.657 2.053 0 3.659-1.605 3.659-3.657 0-2.051-1.695-3.657-3.659-3.657Zm5.444 31.041h-6.872c-3.481 0-5.266 1.517-5.266 4.193 0 2.675 1.696 4.103 5.355 4.103 2.232 0 3.927-.179 5.445-1.695.892-.892 1.249-2.23 1.249-4.282v-2.319h.089Zm-5.444-20.248c-3.927 0-7.14-3.21-7.14-7.136 0-3.924 3.213-7.135 7.14-7.135 3.927 0 7.14 3.21 7.14 7.135s-3.213 7.136-7.14 7.136Zm5.534 33.093v-2.676c-2.142 2.141-4.106 2.943-7.765 2.943-3.66 0-6.069-.892-7.854-2.676-1.518-1.516-2.321-3.746-2.321-6.243 0-4.906 3.392-8.385 10.086-8.385h7.675v-2.052c0-3.657-1.874-5.44-6.337-5.44-3.213 0-4.73.713-6.337 2.854l-3.838-3.657c2.767-3.212 5.623-4.193 10.443-4.193 7.944 0 12.049 3.39 12.049 9.99v19.535h-5.801ZM281.235 82.062c-1.338-1.338-2.32-1.962-4.373-1.962-3.124 0-5.801 2.497-5.801 6.511v17.751h-5.891V75.283h5.712v3.122c1.517-2.051 4.463-3.479 7.765-3.479 2.856 0 4.909.714 6.962 2.766l-4.374 4.37ZM302.834 83.49c-.892-2.141-2.945-3.658-5.712-3.658s-4.909 1.517-5.801 3.657c-.536 1.338-.715 2.141-.715 3.925h13.121c-.179-1.784-.357-2.587-.893-3.925Zm-12.317 8.027c0 4.995 2.678 8.117 7.408 8.117 3.303 0 4.998-.892 7.051-2.943l3.749 3.478c-2.946 2.944-5.802 4.55-10.889 4.55-7.319 0-13.12-3.836-13.12-14.896 0-9.455 4.909-14.897 12.317-14.897 7.854 0 12.317 5.71 12.317 14.004v2.587h-18.833ZM328.897 82.062c-1.339-1.338-2.321-1.962-4.374-1.962-3.124 0-5.801 2.497-5.801 6.511v17.751h-5.891V75.283h5.712v3.122c1.518-2.051 4.463-3.479 7.765-3.479 2.856 0 4.909.714 6.962 2.766l-4.373 4.37Z" fill="#fff"/></svg>
